X:1
T:Homer, 77.77 D
T:Homer, 77.77 D
T:Anonymous, 1875
T:Public Domain Courtesy of the Cyber Hymnal™
C:Anonymous, 1875
Z:Public Domain
Z:Courtesy of the Cyber Hymnal™
%%score ( 1 2 ) ( 3 4 )
L:1/8
Q:1/4=125
M:3/4
K:Eb
V:1 treble 
V:2 treble 
V:3 bass 
V:4 bass 
V:1
 [GB]4 [EG]2 | [GB]4 [EG]2 | ([DF]2 [EG]2) [FA]2 | ([FA]2 [EG]2) z2 | (e2 d2) [Ac]2 | %5
 ([GB]2 [FA]2) [EG]2 | ([DF]2 E2) [B,F]2 | [B,E]4 z2 | [GB]4 [EG]2 | [GB]4 [EG]2 | %10
 [DF]2 [EG]2 [FA]2 | [FA]2 [EG]2 z2 | (e2 d2) [Ac]2 | ([GB]2 [FA]2) [EG]2 | ([DF]2 E2) [B,F]2 | %15
 [B,E]4 z2 | [DF]4 [GB]2 | ([GB]2 [FA]2) [FA]2 | ([FA]2 [EG]2) [EG]2 | ([EG]2 [DF]2) z2 | %20
 [DF]4 [GB]2 | ([GB]2 [FA]2) [FA]2 | ([FA]2 [EG]2) [EG]2 | ([EG]2 [DF]2) z2 | [GB]4 [EG]2 | %25
 [GB]4 [EG]2 | ([DF]2 [EG]2) [FA]2 | ([FA]2 [EG]2) z2 | (e2 d2) [Ac]2 | ([GB]2 [FA]2) [EG]2 | %30
 ([DF]2 E2) [B,F]2 | [B,E]4 z2 |] %32
V:2
 x6 | x6 | x6 | x6 | G4 x2 | x6 | x2 E2 x2 | x6 | x6 | x6 | x6 | x6 | G4 x2 | x6 | x2 E2 x2 | x6 | %16
 x6 | x6 | x6 | x6 | x6 | x6 | x6 | x6 | x6 | x6 | x6 | x6 | G4 x2 | x6 | x2 E2 x2 | x6 |] %32
V:3
 [E,B,]4 [E,B,]2 | [E,E]4 [E,B,]2 | [B,,B,]4 [B,,B,]2 | [E,B,]4 z2 | [E,B,]4 (CD) | %5
 (E2 B,2) [E,B,]2 | (A,2 G,2) [B,,A,]2 | [E,G,]4 z2 | [E,B,]4 [E,B,]2 | [E,E]4 [E,B,]2 | %10
 [B,,B,]4 [B,,B,]2 | [E,B,]4 z2 | [E,B,]4 (CD) | (E2 B,2) [E,B,]2 | (A,2 G,2) [B,,A,]2 | %15
 [E,G,]4 z2 | [B,,B,]4 [B,,B,]2 | [B,,B,]4 [B,,B,]2 | [B,,B,]4 [B,,B,]2 | [B,,B,]4 z2 | B,,4 B,,2 | %21
 B,,4 B,,2 | (B,,2 E,2) G,2 | (B,3 A,G,F,) | [E,B,]4 [E,B,]2 | [E,E]4 [E,B,]2 | [B,,B,]4 [B,,B,]2 | %27
 [E,B,]4 z2 | [E,B,]4 (CD) | (E2 B,2) [E,B,]2 | (A,2 G,2) [B,,A,]2 | [E,G,]4 z2 |] %32
V:4
 x6 | x6 | x6 | x6 | x4 E,2 | E,4 x2 | D,4 x2 | x6 | x6 | x6 | x6 | x6 | x4 E,2 | E,4 x2 | D,4 x2 | %15
 x6 | x6 | x6 | x6 | x6 | x6 | x6 | x6 | B,4 x2 | x6 | x6 | x6 | x6 | x4 E,2 | E,4 x2 | D,4 x2 | %31
 x6 |] %32

